X: 17951
T: Howie's Thirst
R: jig
M: 6/8
K: Eminor
|:B,EE E2G|FGF FED|B,EE E2B|ABA GFE|
B,EE E2G|FGF FED|BAG AGE|1 B,ED E2D:|2 B,ED E2F||
|:G2G GAB|ABA AGF|G2G GAB|AGF E2F|
G2G GAB|ABA AGF|GFE FED|1 B,ED E2F:|2 B,ED E2D||

